X: 5435
T: Bumblebee, The
R: hornpipe
M: 4/4
K: Bminor
|:c^A|(3B^AB (3cBA BF ED|CG FD B,2 B,F,|(3B,B,B, C2 (3DDD (3EEE|(3FFF (3BBB (3^AFA (3cBA|
(3B^AB (3cBA (3BFE (3DCB,|(3^A,B,C (3F,^G,A, (3B,B,C (3DEF|(3GED (3CDE (3FED (3B,CD|(3CGF (3EDC B,2:|
|:cB|Ac ea ge cA|fd af d'a fd|(3b=ge B2b (3afd A/d/f/a/|(3gfe (3fed (3ceA (3Bea|
Ac ea ge cA|fd af d'a fd|(3B^AB (3b=a^g (3afd A/d/f/a/|1 (3gec (3ABc dB:|2 (3gec (3ABc d2||

